X:57
T:Ed's Restaurant Reel
R:reel
C:Bruce Osborne - July 2002
Z:abc by bosborne@kos.net
M:4/4
L:1/8
K:Amaj
AB|c2 ef ecBA|dcdA FAGF|EDCD EAcA|GABc B2 AB|\
c2 ef ecBA|dcdA FAGF|EDCD EAcA|GABG A2:|
|:GA|BEEG BEEG|Acef e2 GA|BEEG BEEG|AFEC A,2 GA|\
BEEG BEEG|Acef e2 GA|BEEG BEEG|AcBG A2:|
